X:13688
T:Pup In The Parachute. HSJJ.113
M:4/4
L:1/8
Q:200
S:HSJ Jackson,Wyresdale,Lancs.1823
R:Reel
O:England
A:Lancashire
H:1823
Z:vmp.Chris Partington.
K:C
c2cGc2cG|Addc Bdde|c2cGc2cG|AcBd ecc2:|!
|:g>age fac'a|gedc Bdde|c>BcG AcGc|fagf ecc2:|]
